assets/logos/youtube.svg

<svg width="80" height="80" viewBox="0 0 80 80" fill="none" xmlns="http://www.w3.org/2000/svg">
<path d="M40 63.0896C39.8 63.0896 19.9295 63.0736 14.9951 61.744C13.6357 61.3734 12.3976 60.6522 11.4047 59.6525C10.4118 58.6529 9.69907 57.4099 9.3377 56.048C8.0145 51.088 8 40.6496 8 40.5456C8 40.4416 8.0161 30.0064 9.3377 25.0416C9.69907 23.6797 10.4118 22.4367 11.4047 21.4371C12.3976 20.4374 13.6357 19.7162 14.9951 19.3456C19.9295 18.016 39.7952 18 40 18C40.2048 18 60.0704 18.016 65.0064 19.3456C66.3656 19.7166 67.6034 20.438 68.5963 21.4376C69.5891 22.4372 70.3022 23.68 70.6641 25.0416C71.9857 30.0016 72 40.4416 72 40.5456C72 40.6496 71.9841 51.0832 70.6641 56.048C70.3022 57.4096 69.5891 58.6524 68.5963 59.652C67.6034 60.6516 66.3656 61.373 65.0064 61.744C60.0704 63.0736 40.2 63.0896 40 63.0896Z" fill="white"/>
<path d="M40 63.0896C39.8 63.0896 19.9295 63.0736 14.9951 61.744C13.6357 61.3734 12.3976 60.6522 11.4047 59.6525C10.4118 58.6529 9.69907 57.4099 9.3377 56.048C8.0145 51.088 8 40.6496 8 40.5456C8 40.4416 8.0161 30.0064 9.3377 25.0416C9.69907 23.6797 10.4118 22.4367 11.4047 21.4371C12.3976 20.4374 13.6357 19.7162 14.9951 19.3456C19.9295 18.016 39.7952 18 40 18C40.2048 18 60.0704 18.016 65.0064 19.3456C66.3656 19.7166 67.6034 20.438 68.5963 21.4376C69.5891 22.4372 70.3022 23.68 70.6641 25.0416C71.9857 30.0016 72 40.4416 72 40.5456C72 40.6496 71.9841 51.0832 70.6641 56.048C70.3022 57.4096 69.5891 58.6524 68.5963 59.652C67.6034 60.6516 66.3656 61.373 65.0064 61.744C60.0704 63.0736 40.2 63.0896 40 63.0896ZM33.4561 31.0272V50.0672L50.1824 40.552L33.4561 31.0352V31.0272Z" fill="#FF0000"/>
</svg>

<svg xmlns="http://www.w3.org/2000/svg" width="80" height="80" fill="none" viewBox="0 0 80 80"><path fill="#fff" d="M40 63.09c-.2 0-20.07-.016-25.005-1.346a8.04 8.04 0 0 1-5.657-5.696C8.015 51.088 8 40.65 8 40.546s.016-10.54 1.338-15.504a8.04 8.04 0 0 1 5.657-5.696C19.93 18.016 39.795 18 40 18s20.07.016 25.006 1.346a8.05 8.05 0 0 1 5.658 5.696C71.986 30.002 72 40.442 72 40.546s-.016 10.537-1.336 15.502a8.05 8.05 0 0 1-5.658 5.696C60.07 63.074 40.2 63.09 40 63.09"/><path fill="red" d="M40 63.09c-.2 0-20.07-.016-25.005-1.346a8.04 8.04 0 0 1-5.657-5.696C8.015 51.088 8 40.65 8 40.546s.016-10.54 1.338-15.504a8.04 8.04 0 0 1 5.657-5.696C19.93 18.016 39.795 18 40 18s20.07.016 25.006 1.346a8.05 8.05 0 0 1 5.658 5.696C71.986 30.002 72 40.442 72 40.546s-.016 10.537-1.336 15.502a8.05 8.05 0 0 1-5.658 5.696C60.07 63.074 40.2 63.09 40 63.09m-6.544-32.063v19.04l16.726-9.515-16.726-9.517z"/></svg>
